src/pages/elements/pictograms/images/10_Backgrounds_3_do.svg

<?xml version="1.0" encoding="UTF-8"?>
<svg width="288px" height="288px" viewBox="0 0 288 288" version="1.1" xmlns="http://www.w3.org/2000/svg" xmlns:xlink="http://www.w3.org/1999/xlink">
    <!-- Generator: Sketch 52.5 (67469) - http://www.bohemiancoding.com/sketch -->
    <title>Artboard Copy 76</title>
    <desc>Created with Sketch.</desc>
    <defs>
        <path d="M125.04525,4.16875 C120.8075,5.30725 117.254,8.02125 115.06325,11.8335 C110.5265,19.68225 113.229,29.762 121.07775,34.293 C123.6135,35.7535 126.42525,36.50675 129.27725,36.50675 C130.70325,36.50675 132.1465,36.317 133.55525,35.9375 C137.8045,34.80475 141.35225,32.07925 143.543,28.27275 C145.7395,24.46625 146.32025,20.03875 145.1875,15.79525 C144.049,11.5575 141.32925,8.00975 137.52275,5.81325 C134.99275,4.347 132.18675,3.5995 129.33475,3.5995 C127.903,3.5995 126.4655,3.78925 125.04525,4.16875 M123.14775,30.71075 C117.277,27.3125 115.25875,19.77425 118.6455,13.89775 C122.038,8.02125 129.582,5.99725 135.45275,9.3955 C138.30475,11.04 140.3345,13.6965 141.1855,16.86475 C142.0365,20.03875 141.60525,23.36225 139.955,26.2085 C138.31625,29.05475 135.6655,31.09025 132.4915,31.94125 C131.42775,32.223 130.3525,32.361 129.283,32.361 C127.14975,32.361 125.04525,31.80325 123.14775,30.71075 M46.32775,5.81325 C42.527,8.00975 39.80725,11.5575 38.66875,15.79525 C37.53025,20.03875 38.111,24.46625 40.3075,28.27275 C42.50975,32.07925 46.05175,34.80475 50.301,35.9375 C51.7155,36.317 53.153,36.50675 54.57325,36.50675 C57.42525,36.50675 60.24275,35.7535 62.7785,34.293 C70.6215,29.762 73.324,19.68225 68.79875,11.8335 C66.5965,8.02125 63.0545,5.30725 58.811,4.16875 C57.39075,3.78925 55.9475,3.60525 54.5215,3.60525 C51.67525,3.60525 48.8635,4.347 46.32775,5.81325 M48.4035,9.3955 C50.29525,8.29725 52.39975,7.74525 54.533,7.74525 C55.6025,7.74525 56.67775,7.88325 57.73575,8.165 C60.90975,9.016 63.56625,11.05725 65.205,13.89775 C68.5975,19.77425 66.57925,27.31825 60.70275,30.71075 C57.8565,32.35525 54.53875,32.775 51.36475,31.94125 C48.1965,31.09025 45.54,29.05475 43.90125,26.2085 L43.8955,26.2085 C40.503,20.332 42.52125,12.788 48.4035,9.3955 M147.361,80.42525 C147.361,89.49875 154.7325,96.87025 163.806,96.87025 C172.868,96.87025 180.24525,89.49875 180.24525,80.42525 C180.24525,71.3575 172.868,63.98025 163.806,63.98025 C154.7325,63.98025 147.361,71.3575 147.361,80.42525 M151.501,80.42525 C151.501,73.64025 157.01525,68.126 163.806,68.126 C170.591,68.126 176.10525,73.64025 176.10525,80.42525 C176.10525,87.21025 170.591,92.73025 163.806,92.73025 C157.01525,92.73025 151.501,87.21025 151.501,80.42525 M75.48025,80.42525 C75.48025,89.49875 82.8575,96.87025 91.931,96.87025 C100.993,96.87025 108.37025,89.49875 108.37025,80.42525 C108.37025,71.3575 100.993,63.98025 91.931,63.98025 C82.8575,63.98025 75.48025,71.3575 75.48025,80.42525 M79.62025,80.42525 C79.62025,73.64025 85.14025,68.126 91.931,68.126 C98.71025,68.126 104.236,73.64025 104.236,80.42525 C104.236,87.21025 98.71025,92.73025 91.931,92.73025 C85.14025,92.73025 79.62025,87.21025 79.62025,80.42525 M3.60525,80.42525 C3.60525,89.49875 10.9825,96.87025 20.056,96.87025 C29.118,96.87025 36.49525,89.49875 36.49525,80.42525 C36.49525,71.3575 29.118,63.98025 20.056,63.98025 C10.9825,63.98025 3.60525,71.3575 3.60525,80.42525 M7.74525,80.42525 C7.74525,73.64025 13.26525,68.126 20.056,68.126 C26.83525,68.126 32.361,73.64025 32.361,80.42525 C32.361,87.21025 26.83525,92.73025 20.056,92.73025 C13.26525,92.73025 7.74525,87.21025 7.74525,80.42525 M50.29525,124.91875 C46.05175,126.05725 42.50975,128.777 40.31325,132.57775 L40.3075,132.57775 C35.78225,140.43225 38.47325,150.512 46.32775,155.043 C48.8635,156.50925 51.67525,157.25675 54.52725,157.25675 C55.959,157.25675 57.39075,157.067 58.811,156.6875 C63.0545,155.55475 66.5965,152.82925 68.793,149.02275 C70.9895,145.222 71.576,140.7945 70.4375,136.54525 C69.299,132.3075 66.57925,128.754 62.7785,126.56325 C60.24275,125.097 57.431,124.3495 54.579,124.3495 C53.153,124.35525 51.7155,124.53925 50.29525,124.91875 M48.4035,151.46075 C42.52125,148.0625 40.503,140.53 43.90125,134.64775 C47.288,128.777 54.832,126.74725 60.70275,130.13975 C63.549,131.79 65.59025,134.44075 66.4355,137.6205 C67.2865,140.7945 66.8495,144.11225 65.205,146.9585 C63.572,149.80475 60.9155,151.8345 57.73575,152.69125 C56.67775,152.973 55.6025,153.111 54.53875,153.111 C52.39975,153.111 50.29525,152.55325 48.4035,151.46075 M121.07775,126.56325 C117.277,128.754 114.55725,132.3075 113.41875,136.54525 C112.28025,140.7945 112.861,145.222 115.06325,149.02275 C117.254,152.82925 120.8075,155.55475 125.051,156.6875 C126.45975,157.067 127.89725,157.25675 129.329,157.25675 C132.17525,157.25675 134.99275,156.50925 137.52275,155.043 C145.37725,150.512 148.07975,140.43225 143.543,132.57775 C141.35225,128.777 137.8045,126.05725 133.55525,124.91875 C132.14075,124.53925 130.709,124.35525 129.283,124.35525 C126.431,124.35525 123.6135,125.097 121.07775,126.56325 M123.14775,130.13975 C125.04525,129.053 127.14975,128.4895 129.283,128.4895 C130.34675,128.4895 131.42775,128.63325 132.4915,128.915 C135.6655,129.77175 138.3105,131.80725 139.955,134.64775 C143.3475,140.53 141.32925,148.06825 135.45275,151.46075 C132.6065,153.10525 129.28875,153.53075 126.1205,152.69125 C122.94075,151.8345 120.29,149.80475 118.6455,146.9585 L118.63975,146.9585 C115.253,141.082 117.277,133.54375 123.14775,130.13975" id="path-1"></path>
        <linearGradient x1="15.7473092%" y1="89.374495%" x2="84.2552301%" y2="10.6197396%" id="linearGradient-3">
            <stop stop-color="#FF518D" offset="0%"></stop>
            <stop stop-color="#008BFF" offset="100%"></stop>
        </linearGradient>
    </defs>
    <g id="Artboard-Copy-76" stroke="none" stroke-width="1" fill="none" fill-rule="evenodd">
        <rect id="Rectangle-3-Copy-45" fill="#171717" x="0" y="0" width="288" height="288"></rect>
        <g id="Group-5-Copy" transform="translate(52.000000, 52.000000)">
            <polygon id="Fill-1" points="0 184 184 184 184 0 0 0"></polygon>
            <g id="Group-4" transform="translate(0.000000, 11.500000)">
                <mask id="mask-2" fill="white">
                    <use xlink:href="#path-1"></use>
                </mask>
                <g id="Clip-3"></g>
                <path d="M125.04525,4.16875 C120.8075,5.30725 117.254,8.02125 115.06325,11.8335 C110.5265,19.68225 113.229,29.762 121.07775,34.293 C123.6135,35.7535 126.42525,36.50675 129.27725,36.50675 C130.70325,36.50675 132.1465,36.317 133.55525,35.9375 C137.8045,34.80475 141.35225,32.07925 143.543,28.27275 C145.7395,24.46625 146.32025,20.03875 145.1875,15.79525 C144.049,11.5575 141.32925,8.00975 137.52275,5.81325 C134.99275,4.347 132.18675,3.5995 129.33475,3.5995 C127.903,3.5995 126.4655,3.78925 125.04525,4.16875 M123.14775,30.71075 C117.277,27.3125 115.25875,19.77425 118.6455,13.89775 C122.038,8.02125 129.582,5.99725 135.45275,9.3955 C138.30475,11.04 140.3345,13.6965 141.1855,16.86475 C142.0365,20.03875 141.60525,23.36225 139.955,26.2085 C138.31625,29.05475 135.6655,31.09025 132.4915,31.94125 C131.42775,32.223 130.3525,32.361 129.283,32.361 C127.14975,32.361 125.04525,31.80325 123.14775,30.71075 M46.32775,5.81325 C42.527,8.00975 39.80725,11.5575 38.66875,15.79525 C37.53025,20.03875 38.111,24.46625 40.3075,28.27275 C42.50975,32.07925 46.05175,34.80475 50.301,35.9375 C51.7155,36.317 53.153,36.50675 54.57325,36.50675 C57.42525,36.50675 60.24275,35.7535 62.7785,34.293 C70.6215,29.762 73.324,19.68225 68.79875,11.8335 C66.5965,8.02125 63.0545,5.30725 58.811,4.16875 C57.39075,3.78925 55.9475,3.60525 54.5215,3.60525 C51.67525,3.60525 48.8635,4.347 46.32775,5.81325 M48.4035,9.3955 C50.29525,8.29725 52.39975,7.74525 54.533,7.74525 C55.6025,7.74525 56.67775,7.88325 57.73575,8.165 C60.90975,9.016 63.56625,11.05725 65.205,13.89775 C68.5975,19.77425 66.57925,27.31825 60.70275,30.71075 C57.8565,32.35525 54.53875,32.775 51.36475,31.94125 C48.1965,31.09025 45.54,29.05475 43.90125,26.2085 L43.8955,26.2085 C40.503,20.332 42.52125,12.788 48.4035,9.3955 M147.361,80.42525 C147.361,89.49875 154.7325,96.87025 163.806,96.87025 C172.868,96.87025 180.24525,89.49875 180.24525,80.42525 C180.24525,71.3575 172.868,63.98025 163.806,63.98025 C154.7325,63.98025 147.361,71.3575 147.361,80.42525 M151.501,80.42525 C151.501,73.64025 157.01525,68.126 163.806,68.126 C170.591,68.126 176.10525,73.64025 176.10525,80.42525 C176.10525,87.21025 170.591,92.73025 163.806,92.73025 C157.01525,92.73025 151.501,87.21025 151.501,80.42525 M75.48025,80.42525 C75.48025,89.49875 82.8575,96.87025 91.931,96.87025 C100.993,96.87025 108.37025,89.49875 108.37025,80.42525 C108.37025,71.3575 100.993,63.98025 91.931,63.98025 C82.8575,63.98025 75.48025,71.3575 75.48025,80.42525 M79.62025,80.42525 C79.62025,73.64025 85.14025,68.126 91.931,68.126 C98.71025,68.126 104.236,73.64025 104.236,80.42525 C104.236,87.21025 98.71025,92.73025 91.931,92.73025 C85.14025,92.73025 79.62025,87.21025 79.62025,80.42525 M3.60525,80.42525 C3.60525,89.49875 10.9825,96.87025 20.056,96.87025 C29.118,96.87025 36.49525,89.49875 36.49525,80.42525 C36.49525,71.3575 29.118,63.98025 20.056,63.98025 C10.9825,63.98025 3.60525,71.3575 3.60525,80.42525 M7.74525,80.42525 C7.74525,73.64025 13.26525,68.126 20.056,68.126 C26.83525,68.126 32.361,73.64025 32.361,80.42525 C32.361,87.21025 26.83525,92.73025 20.056,92.73025 C13.26525,92.73025 7.74525,87.21025 7.74525,80.42525 M50.29525,124.91875 C46.05175,126.05725 42.50975,128.777 40.31325,132.57775 L40.3075,132.57775 C35.78225,140.43225 38.47325,150.512 46.32775,155.043 C48.8635,156.50925 51.67525,157.25675 54.52725,157.25675 C55.959,157.25675 57.39075,157.067 58.811,156.6875 C63.0545,155.55475 66.5965,152.82925 68.793,149.02275 C70.9895,145.222 71.576,140.7945 70.4375,136.54525 C69.299,132.3075 66.57925,128.754 62.7785,126.56325 C60.24275,125.097 57.431,124.3495 54.579,124.3495 C53.153,124.35525 51.7155,124.53925 50.29525,124.91875 M48.4035,151.46075 C42.52125,148.0625 40.503,140.53 43.90125,134.64775 C47.288,128.777 54.832,126.74725 60.70275,130.13975 C63.549,131.79 65.59025,134.44075 66.4355,137.6205 C67.2865,140.7945 66.8495,144.11225 65.205,146.9585 C63.572,149.80475 60.9155,151.8345 57.73575,152.69125 C56.67775,152.973 55.6025,153.111 54.53875,153.111 C52.39975,153.111 50.29525,152.55325 48.4035,151.46075 M121.07775,126.56325 C117.277,128.754 114.55725,132.3075 113.41875,136.54525 C112.28025,140.7945 112.861,145.222 115.06325,149.02275 C117.254,152.82925 120.8075,155.55475 125.051,156.6875 C126.45975,157.067 127.89725,157.25675 129.329,157.25675 C132.17525,157.25675 134.99275,156.50925 137.52275,155.043 C145.37725,150.512 148.07975,140.43225 143.543,132.57775 C141.35225,128.777 137.8045,126.05725 133.55525,124.91875 C132.14075,124.53925 130.709,124.35525 129.283,124.35525 C126.431,124.35525 123.6135,125.097 121.07775,126.56325 M123.14775,130.13975 C125.04525,129.053 127.14975,128.4895 129.283,128.4895 C130.34675,128.4895 131.42775,128.63325 132.4915,128.915 C135.6655,129.77175 138.3105,131.80725 139.955,134.64775 C143.3475,140.53 141.32925,148.06825 135.45275,151.46075 C132.6065,153.10525 129.28875,153.53075 126.1205,152.69125 C122.94075,151.8345 120.29,149.80475 118.6455,146.9585 L118.63975,146.9585 C115.253,141.082 117.277,133.54375 123.14775,130.13975" id="Fill-2" fill="url(#linearGradient-3)" mask="url(#mask-2)"></path>
            </g>
        </g>
    </g>
</svg>

<svg xmlns="http://www.w3.org/2000/svg" xmlns:xlink="http://www.w3.org/1999/xlink" viewBox="0 0 288 288"><defs><linearGradient x1="15.747%" y1="89.374%" x2="84.255%" y2="10.62%" id="b"><stop stop-color="#FF518D" offset="0%"/><stop stop-color="#008BFF" offset="100%"/></linearGradient><path d="M125.045 4.169c-4.237 1.138-7.791 3.852-9.982 7.665-4.537 7.848-1.834 17.928 6.015 22.459a16.39 16.39 0 008.2 2.214c1.425 0 2.869-.19 4.277-.57a16.29 16.29 0 009.988-7.664 16.353 16.353 0 001.644-12.478 16.346 16.346 0 00-7.664-9.982 16.274 16.274 0 00-8.188-2.213c-1.432 0-2.87.19-4.29.569m-1.897 26.542c-5.871-3.398-7.89-10.937-4.502-16.813 3.392-5.877 10.936-7.9 16.807-4.502a12.221 12.221 0 015.732 7.469 12.21 12.21 0 01-1.23 9.344 12.199 12.199 0 01-7.464 5.732c-1.063.282-2.139.42-3.208.42-2.133 0-4.238-.558-6.135-1.65M46.328 5.813a16.358 16.358 0 00-7.66 9.982 16.326 16.326 0 001.64 12.478c2.202 3.806 5.744 6.532 9.993 7.665 1.414.379 2.852.569 4.272.569 2.852 0 5.67-.753 8.206-2.214 7.842-4.531 10.545-14.61 6.02-22.46A16.337 16.337 0 0058.81 4.17a16.618 16.618 0 00-4.29-.564 16.32 16.32 0 00-8.193 2.208m2.075 3.583a12.168 12.168 0 016.13-1.65c1.07 0 2.145.137 3.203.419a12.23 12.23 0 017.469 5.733c3.392 5.876 1.374 13.42-4.502 16.813-2.847 1.644-6.164 2.064-9.338 1.23A12.215 12.215 0 0143.9 26.21h-.006c-3.392-5.877-1.374-13.421 4.508-16.814m98.958 71.03c0 9.074 7.371 16.445 16.445 16.445 9.062 0 16.44-7.371 16.44-16.445 0-9.067-7.378-16.445-16.44-16.445-9.074 0-16.445 7.378-16.445 16.445m4.14 0c0-6.785 5.514-12.299 12.305-12.299 6.785 0 12.3 5.514 12.3 12.3 0 6.784-5.515 12.304-12.3 12.304-6.79 0-12.305-5.52-12.305-12.305m-76.02 0c0 9.074 7.377 16.445 16.45 16.445 9.062 0 16.44-7.371 16.44-16.445 0-9.067-7.378-16.445-16.44-16.445-9.073 0-16.45 7.378-16.45 16.445m4.14 0c0-6.785 5.52-12.299 12.31-12.299 6.78 0 12.305 5.514 12.305 12.3 0 6.784-5.526 12.304-12.305 12.304-6.79 0-12.31-5.52-12.31-12.305m-76.016 0c0 9.074 7.377 16.445 16.451 16.445 9.062 0 16.44-7.371 16.44-16.445 0-9.067-7.378-16.445-16.44-16.445-9.074 0-16.45 7.378-16.45 16.445m4.14 0c0-6.785 5.52-12.299 12.31-12.299 6.78 0 12.305 5.514 12.305 12.3 0 6.784-5.526 12.304-12.305 12.304-6.79 0-12.31-5.52-12.31-12.305m42.55 44.494a16.342 16.342 0 00-9.983 7.659h-.006c-4.525 7.854-1.834 17.934 6.02 22.465a16.331 16.331 0 0012.484 1.644c4.243-1.132 7.786-3.858 9.982-7.664a16.321 16.321 0 001.644-12.478 16.342 16.342 0 00-7.658-9.982 16.331 16.331 0 00-8.2-2.213c-1.426.005-2.864.19-4.284.569m-1.892 26.542c-5.882-3.399-7.9-10.931-4.502-16.813 3.387-5.871 10.931-7.9 16.802-4.508 2.846 1.65 4.887 4.3 5.733 7.48a12.22 12.22 0 01-1.231 9.338c-1.633 2.847-4.29 4.876-7.47 5.733-1.057.282-2.133.42-3.196.42-2.14 0-4.244-.558-6.136-1.65m72.675-24.898a16.342 16.342 0 00-7.66 9.982c-1.138 4.25-.557 8.677 1.645 12.478a16.306 16.306 0 009.988 7.665 16.31 16.31 0 0012.472-1.644c7.854-4.532 10.557-14.612 6.02-22.466a16.322 16.322 0 00-9.988-7.66 16.457 16.457 0 00-4.272-.563c-2.852 0-5.67.742-8.205 2.208m2.07 3.577a12.322 12.322 0 016.135-1.65c1.064 0 2.145.143 3.209.425a12.256 12.256 0 017.463 5.733c3.392 5.882 1.374 13.42-4.502 16.813a12.261 12.261 0 01-9.332 1.23 12.242 12.242 0 01-7.475-5.733h-.006c-3.387-5.876-1.363-13.414 4.508-16.818" id="a"/></defs><g fill="none" fill-rule="evenodd"><path fill="#171717" d="M0 0h288v288H0z"/><path d="M52 236h184V52H52z"/><g transform="translate(52 63.5)"><mask id="c" fill="#fff"><use xlink:href="#a"/></mask><path d="M125.045 4.169c-4.237 1.138-7.791 3.852-9.982 7.665-4.537 7.848-1.834 17.928 6.015 22.459a16.39 16.39 0 008.2 2.214c1.425 0 2.869-.19 4.277-.57a16.29 16.29 0 009.988-7.664 16.353 16.353 0 001.644-12.478 16.346 16.346 0 00-7.664-9.982 16.274 16.274 0 00-8.188-2.213c-1.432 0-2.87.19-4.29.569m-1.897 26.542c-5.871-3.398-7.89-10.937-4.502-16.813 3.392-5.877 10.936-7.9 16.807-4.502a12.221 12.221 0 015.732 7.469 12.21 12.21 0 01-1.23 9.344 12.199 12.199 0 01-7.464 5.732c-1.063.282-2.139.42-3.208.42-2.133 0-4.238-.558-6.135-1.65M46.328 5.813a16.358 16.358 0 00-7.66 9.982 16.326 16.326 0 001.64 12.478c2.202 3.806 5.744 6.532 9.993 7.665 1.414.379 2.852.569 4.272.569 2.852 0 5.67-.753 8.206-2.214 7.842-4.531 10.545-14.61 6.02-22.46A16.337 16.337 0 0058.81 4.17a16.618 16.618 0 00-4.29-.564 16.32 16.32 0 00-8.193 2.208m2.075 3.583a12.168 12.168 0 016.13-1.65c1.07 0 2.145.137 3.203.419a12.23 12.23 0 017.469 5.733c3.392 5.876 1.374 13.42-4.502 16.813-2.847 1.644-6.164 2.064-9.338 1.23A12.215 12.215 0 0143.9 26.21h-.006c-3.392-5.877-1.374-13.421 4.508-16.814m98.958 71.03c0 9.074 7.371 16.445 16.445 16.445 9.062 0 16.44-7.371 16.44-16.445 0-9.067-7.378-16.445-16.44-16.445-9.074 0-16.445 7.378-16.445 16.445m4.14 0c0-6.785 5.514-12.299 12.305-12.299 6.785 0 12.3 5.514 12.3 12.3 0 6.784-5.515 12.304-12.3 12.304-6.79 0-12.305-5.52-12.305-12.305m-76.02 0c0 9.074 7.377 16.445 16.45 16.445 9.062 0 16.44-7.371 16.44-16.445 0-9.067-7.378-16.445-16.44-16.445-9.073 0-16.45 7.378-16.45 16.445m4.14 0c0-6.785 5.52-12.299 12.31-12.299 6.78 0 12.305 5.514 12.305 12.3 0 6.784-5.526 12.304-12.305 12.304-6.79 0-12.31-5.52-12.31-12.305m-76.016 0c0 9.074 7.377 16.445 16.451 16.445 9.062 0 16.44-7.371 16.44-16.445 0-9.067-7.378-16.445-16.44-16.445-9.074 0-16.45 7.378-16.45 16.445m4.14 0c0-6.785 5.52-12.299 12.31-12.299 6.78 0 12.305 5.514 12.305 12.3 0 6.784-5.526 12.304-12.305 12.304-6.79 0-12.31-5.52-12.31-12.305m42.55 44.494a16.342 16.342 0 00-9.983 7.659h-.006c-4.525 7.854-1.834 17.934 6.02 22.465a16.331 16.331 0 0012.484 1.644c4.243-1.132 7.786-3.858 9.982-7.664a16.321 16.321 0 001.644-12.478 16.342 16.342 0 00-7.658-9.982 16.331 16.331 0 00-8.2-2.213c-1.426.005-2.864.19-4.284.569m-1.892 26.542c-5.882-3.399-7.9-10.931-4.502-16.813 3.387-5.871 10.931-7.9 16.802-4.508 2.846 1.65 4.887 4.3 5.733 7.48a12.22 12.22 0 01-1.231 9.338c-1.633 2.847-4.29 4.876-7.47 5.733-1.057.282-2.133.42-3.196.42-2.14 0-4.244-.558-6.136-1.65m72.675-24.898a16.342 16.342 0 00-7.66 9.982c-1.138 4.25-.557 8.677 1.645 12.478a16.306 16.306 0 009.988 7.665 16.31 16.31 0 0012.472-1.644c7.854-4.532 10.557-14.612 6.02-22.466a16.322 16.322 0 00-9.988-7.66 16.457 16.457 0 00-4.272-.563c-2.852 0-5.67.742-8.205 2.208m2.07 3.577a12.322 12.322 0 016.135-1.65c1.064 0 2.145.143 3.209.425a12.256 12.256 0 017.463 5.733c3.392 5.882 1.374 13.42-4.502 16.813a12.261 12.261 0 01-9.332 1.23 12.242 12.242 0 01-7.475-5.733h-.006c-3.387-5.876-1.363-13.414 4.508-16.818" fill="url(#b)" mask="url(#c)"/></g></g></svg>
